.local/share/icons/Gruvbox-Plus-Dark/mimetypes/scalable/text-x-octave.svg

<svg width="256" height="256" viewBox="0 0 256 256" fill="none" xmlns="http://www.w3.org/2000/svg">
<g opacity="0.4" filter="url(#filter0_f)">
<path d="M55.0839 15.5636H155.608L216.009 75.7129L216.011 224.609C216.011 233.52 208.749 240.737 199.838 240.737H55.0838C46.1734 240.737 39 233.564 39 224.654V31.6474C39 22.737 46.1734 15.5636 55.0838 15.5636H55.0839Z" fill="#282828"/>
</g>
<path d="M55.0839 15H155.608L216.009 75.1493L216.011 224.045C216.011 232.956 208.749 240.174 199.838 240.174H55.0838C46.1734 240.174 39 233 39 224.09V31.0838C39 22.1734 46.1734 15 55.0838 15H55.0839Z" fill="#ebdbb2"/>
<path fill-rule="evenodd" clip-rule="evenodd" d="M155.609 22.9787H55.0839C50.58 22.9787 46.9787 26.5799 46.9787 31.0838V224.09C46.9787 228.594 50.5799 232.195 55.0838 232.195H199.838C204.371 232.195 208.032 228.521 208.032 224.046V75.1493L155.609 22.9787ZM155.608 15H55.0839C46.1735 15 39 22.1734 39 31.0838V224.09C39 233 46.1734 240.174 55.0838 240.174H199.838C208.749 240.174 216.011 232.956 216.011 224.045L216.009 75.1493L155.608 15Z" fill="url(#paint0_linear)"/>
<path d="M130.608 71C123.071 71 115.608 72.4873 108.645 75.3769C101.682 78.2666 95.3557 82.502 90.0265 87.8414C84.6973 93.1807 80.4699 99.5195 77.5858 106.496C74.7016 113.472 73.2172 120.949 73.2172 128.5C73.2172 136.051 74.7016 143.528 77.5858 150.504C80.4699 157.481 84.6973 163.819 90.0265 169.159C95.3557 174.498 101.682 178.733 108.645 181.623C115.608 184.513 123.071 186 130.608 186C145.829 186 160.426 179.942 171.189 169.159C181.952 158.375 187.998 143.75 187.998 128.5C187.998 113.25 181.952 98.6247 171.189 87.8414C160.426 77.058 145.829 71 130.608 71V71ZM137.129 84.0682C148.545 84.0682 159.493 88.6117 167.565 96.6992C175.637 104.787 180.172 115.756 180.172 127.193C180.172 138.631 175.637 149.6 167.565 157.687C159.493 165.775 148.545 170.318 137.129 170.318C125.714 170.318 114.765 165.775 106.693 157.687C98.6213 149.6 94.0865 138.631 94.0864 127.193C94.0864 115.756 98.6213 104.787 106.693 96.6992C114.766 88.6117 125.714 84.0682 137.129 84.0682V84.0682Z" fill="url(#paint1_linear)"/>
<path d="M101.391 107.59H76.3478C71.7374 107.59 68 111.334 68 115.953V141.045C68 145.664 71.7374 149.408 76.3478 149.408H101.391C106.002 149.408 109.739 145.664 109.739 141.045V115.953C109.739 111.334 106.002 107.59 101.391 107.59Z" fill="url(#paint2_linear)"/>
<path d="M182.783 138.954H167.13C164.249 138.954 161.913 141.294 161.913 144.181V159.863C161.913 162.75 164.249 165.09 167.13 165.09H182.783C185.664 165.09 188 162.75 188 159.863V144.181C188 141.294 185.664 138.954 182.783 138.954Z" fill="url(#paint3_linear)"/>
<path d="M168.174 76.2254H155.652C153.347 76.2254 151.478 78.0977 151.478 80.4073V92.953C151.478 95.2625 153.347 97.1348 155.652 97.1348H168.174C170.479 97.1348 172.348 95.2625 172.348 92.953V80.4073C172.348 78.0977 170.479 76.2254 168.174 76.2254Z" fill="url(#paint4_linear)"/>
<path opacity="0.25" d="M155.608 17V61.2306C155.608 70.141 162.867 77.1605 171.777 77.1605L216.009 77.1493V75.1493L155.608 17Z" fill="#282828"/>
<path d="M155.608 15V59.2306C155.608 68.141 162.867 75.1605 171.777 75.1605L216.009 75.1493L155.608 15Z" fill="url(#paint5_linear)"/>
<defs>
<filter id="filter0_f" x="23.8778" y="0.441412" width="207.255" height="255.418" filterUnits="userSpaceOnUse" color-interpolation-filters="sRGB">
<feFlood flood-opacity="0" result="BackgroundImageFix"/>
<feBlend mode="normal" in="SourceGraphic" in2="BackgroundImageFix" result="shape"/>
<feGaussianBlur stdDeviation="7.5611" result="effect1_foregroundBlur"/>
</filter>
<linearGradient id="paint0_linear" x1="72.1366" y1="16.0339" x2="72.9729" y2="239.888" gradientUnits="userSpaceOnUse">
<stop stop-color="#83a598"/>
<stop offset="1" stop-color="#458588"/>
</linearGradient>
<linearGradient id="paint1_linear" x1="130.608" y1="71" x2="130.608" y2="186" gradientUnits="userSpaceOnUse">
<stop stop-color="#83a598"/>
<stop offset="1" stop-color="#076678"/>
</linearGradient>
<linearGradient id="paint2_linear" x1="68" y1="107.59" x2="68" y2="149.408" gradientUnits="userSpaceOnUse">
<stop offset="1e-07" stop-color="#fabd2f"/>
<stop offset="1" stop-color="#fe8019"/>
</linearGradient>
<linearGradient id="paint3_linear" x1="161.913" y1="138.954" x2="161.913" y2="165.09" gradientUnits="userSpaceOnUse">
<stop offset="1e-07" stop-color="#fabd2f"/>
<stop offset="1" stop-color="#fe8019"/>
</linearGradient>
<linearGradient id="paint4_linear" x1="151.478" y1="76.2254" x2="151.478" y2="97.1348" gradientUnits="userSpaceOnUse">
<stop offset="1e-07" stop-color="#fabd2f"/>
<stop offset="1" stop-color="#fe8019"/>
</linearGradient>
<linearGradient id="paint5_linear" x1="155.608" y1="15" x2="155.608" y2="75.1605" gradientUnits="userSpaceOnUse">
<stop offset="1e-07" stop-color="#83a598"/>
<stop offset="1" stop-color="#458588"/>
</linearGradient>
</defs>
</svg>

<svg width="256" height="256" fill="none" version="1.1" viewBox="0 0 256 256" xmlns="http://www.w3.org/2000/svg">
  <path d="m55.08 15h100.5l60.4 60.15 2e-3 148.9c0 8.911-7.262 16.13-16.17 16.13h-144.8c-8.91 0-16.08-7.174-16.08-16.08v-193c0-8.91 7.173-16.08 16.08-16.08h1e-4z" fill="#ebdbb2"/>
  <path d="m155.6 22.98h-100.5c-4.504 0-8.105 3.601-8.105 8.105v193c0 4.504 3.601 8.105 8.105 8.105h144.8c4.533 0 8.194-3.674 8.194-8.149v-148.9l-52.42-52.17zm-1e-3 -7.979h-100.5c-8.91 0-16.08 7.173-16.08 16.08v193c0 8.91 7.173 16.08 16.08 16.08h144.8c8.911 0 16.17-7.218 16.17-16.13l-2e-3 -148.9-60.4-60.15z" clip-rule="evenodd" fill="url(#paint0_linear)" fill-rule="evenodd"/>
  <path d="m130.6 71c-7.537 0-15 1.487-21.96 4.377-6.963 2.89-13.29 7.125-18.62 12.46-5.329 5.339-9.557 11.68-12.44 18.65-2.884 6.976-4.369 14.45-4.369 22s1.484 15.03 4.369 22c2.884 6.977 7.112 13.32 12.44 18.66 5.329 5.339 11.66 9.574 18.62 12.46s14.43 4.377 21.96 4.377c15.22 0 29.82-6.058 40.58-16.84 10.76-10.78 16.81-25.41 16.81-40.66s-6.046-29.88-16.81-40.66c-10.76-10.78-25.36-16.84-40.58-16.84zm6.521 13.07c11.42 0 22.36 4.544 30.44 12.63 8.072 8.088 12.61 19.06 12.61 30.49 0 11.44-4.535 22.41-12.61 30.49-8.072 8.088-19.02 12.63-30.44 12.63-11.42 0-22.36-4.543-30.44-12.63-8.072-8.087-12.61-19.06-12.61-30.49 0-11.44 4.535-22.41 12.61-30.49 8.073-8.088 19.02-12.63 30.44-12.63z" fill="url(#paint1_linear)"/>
  <path d="m101.4 107.6h-25.04c-4.61 0-8.348 3.744-8.348 8.363v25.09c0 4.619 3.737 8.363 8.348 8.363h25.04c4.611 0 8.348-3.744 8.348-8.363v-25.09c0-4.619-3.737-8.363-8.348-8.363z" fill="url(#paint2_linear)"/>
  <path d="m182.8 139h-15.65c-2.881 0-5.217 2.34-5.217 5.227v15.68c0 2.887 2.336 5.227 5.217 5.227h15.65c2.881 0 5.217-2.34 5.217-5.227v-15.68c0-2.887-2.336-5.227-5.217-5.227z" fill="url(#paint3_linear)"/>
  <path d="m168.2 76.23h-12.52c-2.305 0-4.174 1.872-4.174 4.182v12.55c0 2.31 1.869 4.182 4.174 4.182h12.52c2.305 0 4.174-1.872 4.174-4.182v-12.55c0-2.31-1.869-4.182-4.174-4.182z" fill="url(#paint4_linear)"/>
  <path d="m155.6 17v44.23c0 8.91 7.259 15.93 16.17 15.93l44.23-0.0112v-2l-60.4-58.15z" fill="#282828" opacity=".25"/>
  <path d="m155.6 15v44.23c0 8.91 7.259 15.93 16.17 15.93l44.23-0.0112-60.4-60.15z" fill="url(#paint5_linear)"/>
  <defs>
    <linearGradient id="paint0_linear" x1="72.14" x2="72.97" y1="16.03" y2="239.9" gradientUnits="userSpaceOnUse">
      <stop stop-color="#83a598" offset="0"/>
      <stop stop-color="#458588" offset="1"/>
    </linearGradient>
    <linearGradient id="paint1_linear" x1="130.6" x2="130.6" y1="71" y2="186" gradientUnits="userSpaceOnUse">
      <stop stop-color="#83a598" offset="0"/>
      <stop stop-color="#076678" offset="1"/>
    </linearGradient>
    <linearGradient id="paint2_linear" x1="68" x2="68" y1="107.6" y2="149.4" gradientUnits="userSpaceOnUse">
      <stop stop-color="#fabd2f" offset="1e-7"/>
      <stop stop-color="#fe8019" offset="1"/>
    </linearGradient>
    <linearGradient id="paint3_linear" x1="161.9" x2="161.9" y1="139" y2="165.1" gradientUnits="userSpaceOnUse">
      <stop stop-color="#fabd2f" offset="1e-7"/>
      <stop stop-color="#fe8019" offset="1"/>
    </linearGradient>
    <linearGradient id="paint4_linear" x1="151.5" x2="151.5" y1="76.23" y2="97.13" gradientUnits="userSpaceOnUse">
      <stop stop-color="#fabd2f" offset="1e-7"/>
      <stop stop-color="#fe8019" offset="1"/>
    </linearGradient>
    <linearGradient id="paint5_linear" x1="155.6" x2="155.6" y1="15" y2="75.16" gradientUnits="userSpaceOnUse">
      <stop stop-color="#83a598" offset="1e-7"/>
      <stop stop-color="#458588" offset="1"/>
    </linearGradient>
  </defs>
</svg>
